public/images/hashed/b8bb56ac70a5f3af5e4f994bbafff8e8.svg

<?xml version="1.0" encoding="UTF-8"?>
<svg width="80px" height="80px" viewBox="0 0 80 80" version="1.1" xmlns="http://www.w3.org/2000/svg" xmlns:xlink="http://www.w3.org/1999/xlink">
    <!-- Generator: Sketch 64 (93537) - https://sketch.com -->
    <title>Icon-Architecture/64/Arch_Amazon-Rekognition_64</title>
    <desc>Created with Sketch.</desc>
    <defs>
        <linearGradient x1="0%" y1="100%" x2="100%" y2="0%" id="linearGradient-1">
            <stop stop-color="#055F4E" offset="0%"></stop>
            <stop stop-color="#56C0A7" offset="100%"></stop>
        </linearGradient>
    </defs>
    <g id="Icon-Architecture/64/Arch_Amazon-Rekognition_64" stroke="none" stroke-width="1" fill="none" fill-rule="evenodd">
        <g id="Icon-Architecture-BG/64/Machine-Learning" fill="url(#linearGradient-1)">
            <rect id="Rectangle" x="0" y="0" width="80" height="80"></rect>
        </g>
        <path d="M65.3266241,60.3224668 L51.9153129,47.2660207 C50.6025148,49.0401643 49.0315936,50.612586 47.2569971,51.9257952 L60.3446461,65.3231512 C60.9929788,65.9716869 61.7623067,66.0271604 62.2926691,65.9605922 C63.1053536,65.8567055 63.9482869,65.4038399 64.6682084,64.6847016 C65.3901466,63.9615288 65.8499284,63.1112712 65.9588241,62.2882461 C66.0304129,61.751666 65.9779816,60.9750369 65.3266241,60.3224668 L65.3266241,60.3224668 Z M34.1239749,54.2435791 C45.2111697,54.2435791 54.2303546,45.2205612 54.2303546,34.1309031 C54.2303546,23.0402363 45.2111697,14.0172184 34.1239749,14.0172184 C23.0367801,14.0172184 14.0165869,23.0402363 14.0165869,34.1309031 C14.0165869,45.2205612 23.0367801,54.2435791 34.1239749,54.2435791 L34.1239749,54.2435791 Z M67.9572617,62.5555275 C67.7888767,63.8142718 67.1274362,65.0770505 66.0939354,66.110875 C65.0594263,67.1446994 63.8010761,67.8023126 62.5477673,67.9616729 C62.3461086,67.9878967 62.1464665,68 61.9478327,68 C60.794345,68 59.732612,67.5642808 58.9108528,66.7412557 L45.5570144,53.0705666 C42.2175465,55.0938367 38.3043596,56.2607975 34.1239749,56.2607975 C21.9246324,56.2607975 12,46.3330572 12,34.1309031 C12,21.9277404 21.9246324,12 34.1239749,12 C46.3223091,12 56.2469415,21.9277404 56.2469415,34.1309031 C56.2469415,38.3115882 55.0813543,42.2249919 53.0587176,45.564497 L66.7422681,58.8862073 C67.7162796,59.8595151 68.143796,61.1596124 67.9572617,62.5555275 L67.9572617,62.5555275 Z M48.2400832,34.1309031 C48.2400832,26.2123122 42.0390785,20.0103743 34.1239749,20.0103743 C26.207863,20.0103743 20.0078666,26.2123122 20.0078666,34.1309031 C20.0078666,42.0484853 26.207863,48.2514319 34.1239749,48.2514319 C42.0390785,48.2514319 48.2400832,42.0484853 48.2400832,34.1309031 L48.2400832,34.1309031 Z M50.2566701,34.1309031 C50.2566701,43.1801448 43.1693755,50.2686503 34.1239749,50.2686503 C25.0775661,50.2686503 17.9912797,43.1801448 17.9912797,34.1309031 C17.9912797,25.0816613 25.0775661,17.9931559 34.1239749,17.9931559 C43.1693755,17.9931559 50.2566701,25.0816613 50.2566701,34.1309031 L50.2566701,34.1309031 Z M27.9007877,36.9741724 L25.8842008,36.9741724 L25.8842008,42.0172184 L30.9256681,42.0172184 L30.9256681,40 L27.9007877,40 L27.9007877,36.9741724 Z M25.8842008,30.9225172 L27.9007877,30.9225172 L27.9007877,27.8966896 L30.9256681,27.8966896 L30.9256681,25.8794712 L25.8842008,25.8794712 L25.8842008,30.9225172 Z M36.9754288,27.8966896 L40.0003092,27.8966896 L40.0003092,30.9225172 L42.0168961,30.9225172 L42.0168961,25.8794712 L36.9754288,25.8794712 L36.9754288,27.8966896 Z M40.0003092,36.9741724 L42.0168961,36.9741724 L42.0168961,42.0172184 L36.9754288,42.0172184 L36.9754288,40 L40.0003092,40 L40.0003092,36.9741724 Z" id="Amazon-Rekognition-Icon_64_Squid" fill="#FFFFFF"></path>
    </g>
</svg>

<svg xmlns="http://www.w3.org/2000/svg" width="80" height="80"><defs><linearGradient id="a" x1="0%" x2="100%" y1="100%" y2="0%"><stop offset="0%" stop-color="#055F4E"/><stop offset="100%" stop-color="#56C0A7"/></linearGradient></defs><g fill="none" fill-rule="evenodd"><path fill="url(#a)" d="M0 0h80v80H0z"/><path fill="#FFF" d="M65.327 60.322 51.915 47.266a22.301 22.301 0 0 1-4.658 4.66l13.088 13.397c.648.649 1.417.704 1.948.638.812-.104 1.655-.557 2.375-1.276.722-.723 1.182-1.574 1.29-2.397.072-.536.02-1.313-.631-1.966Zm-31.203-6.078c11.087 0 20.106-9.023 20.106-20.113s-9.019-20.114-20.106-20.114c-11.087 0-20.107 9.023-20.107 20.114 0 11.09 9.02 20.113 20.107 20.113Zm33.833 8.312c-.168 1.258-.83 2.521-1.863 3.555-1.035 1.034-2.293 1.691-3.546 1.85a4.642 4.642 0 0 1-.6.039 4.226 4.226 0 0 1-3.037-1.259l-13.354-13.67a21.996 21.996 0 0 1-11.433 3.19C21.924 56.26 12 46.333 12 34.13 12 21.928 21.925 12 34.124 12c12.198 0 22.123 9.928 22.123 22.13 0 4.182-1.166 8.095-3.188 11.434l13.683 13.322c.974.974 1.402 2.274 1.215 3.67ZM48.24 34.13c0-7.919-6.2-14.12-14.116-14.12-7.916 0-14.116 6.201-14.116 14.12 0 7.917 6.2 14.12 14.116 14.12 7.915 0 14.116-6.203 14.116-14.12Zm2.017 0c0 9.05-7.088 16.138-16.133 16.138-9.046 0-16.133-7.089-16.133-16.138 0-9.05 7.087-16.138 16.133-16.138 9.045 0 16.133 7.089 16.133 16.138ZM27.9 36.974h-2.017v5.043h5.042V40H27.9v-3.026Zm-2.017-6.051h2.017v-3.026h3.025v-2.018h-5.042v5.044Zm11.091-3.026H40v3.026h2.017v-5.044h-5.042v2.018ZM40 36.974h2.017v5.043h-5.042V40H40v-3.026Z"/></g></svg>
